client/filepreviewer/pdfjs/web/images/comment-actionsButton.svg

<svg width="25" height="24" viewBox="0 0 25 24" fill="none" xmlns="http://www.w3.org/2000/svg">
<path fill-rule="evenodd" clip-rule="evenodd" d="M7.51562 11H6.01562L5.51562 11.5V13L6.01562 13.5H7.51562L8.01562 13V11.5L7.51562 11ZM13.2656 11H11.7656L11.2656 11.5V13L11.7656 13.5H13.2656L13.7656 13V11.5L13.2656 11ZM17.5156 11H19.0156L19.5156 11.5V13L19.0156 13.5H17.5156L17.0156 13V11.5L17.5156 11Z" fill="black"/>
</svg>

<svg xmlns="http://www.w3.org/2000/svg" width="25" height="24" fill="none" viewBox="0 0 25 24"><path fill="#000" fill-rule="evenodd" d="M7.516 11h-1.5l-.5.5V13l.5.5h1.5l.5-.5v-1.5zm5.75 0h-1.5l-.5.5V13l.5.5h1.5l.5-.5v-1.5zm4.25 0h1.5l.5.5V13l-.5.5h-1.5l-.5-.5v-1.5z" clip-rule="evenodd"/></svg>
